presets/Calido suave.cube
TITLE "Calido suave"
LUT_3D_SIZE 5
0.010000 0.000000 0.000000
0.280000 0.000000 0.000000
0.550000 0.000000 0.000000
0.820000 0.000000 0.000000
1.000000 0.000000 0.000000
0.010000 0.252500 0.000000
0.280000 0.252500 0.000000
0.550000 0.252500 0.000000
0.820000 0.252500 0.000000
1.000000 0.252500 0.000000
0.010000 0.505000 0.000000
0.280000 0.505000 0.000000
0.550000 0.505000 0.000000
0.820000 0.505000 0.000000
1.000000 0.505000 0.000000
0.010000 0.757500 0.000000
0.280000 0.757500 0.000000
0.550000 0.757500 0.000000
0.820000 0.757500 0.000000
1.000000 0.757500 0.000000
0.010000 1.010000 0.000000
0.280000 1.010000 0.000000
0.550000 1.010000 0.000000
0.820000 1.010000 0.000000
1.000000 1.010000 0.000000
0.010000 0.000000 0.230000
0.280000 0.000000 0.230000
0.550000 0.000000 0.230000
0.820000 0.000000 0.230000
1.000000 0.000000 0.230000
0.010000 0.252500 0.230000
0.280000 0.252500 0.230000
0.550000 0.252500 0.230000
0.820000 0.252500 0.230000
1.000000 0.252500 0.230000
0.010000 0.505000 0.230000
0.280000 0.505000 0.230000
0.550000 0.505000 0.230000
0.820000 0.505000 0.230000
1.000000 0.505000 0.230000
0.010000 0.757500 0.230000
0.280000 0.757500 0.230000
0.550000 0.757500 0.230000
0.820000 0.757500 0.230000
1.000000 0.757500 0.230000
0.010000 1.010000 0.230000
0.280000 1.010000 0.230000
0.550000 1.010000 0.230000
0.820000 1.010000 0.230000
1.000000 1.010000 0.230000
0.010000 0.000000 0.460000
0.280000 0.000000 0.460000
0.550000 0.000000 0.460000
0.820000 0.000000 0.460000
1.000000 0.000000 0.460000
0.010000 0.252500 0.460000
0.280000 0.252500 0.460000
0.550000 0.252500 0.460000
0.820000 0.252500 0.460000
1.000000 0.252500 0.460000
0.010000 0.505000 0.460000
0.280000 0.505000 0.460000
0.550000 0.505000 0.460000
0.820000 0.505000 0.460000
1.000000 0.505000 0.460000
0.010000 0.757500 0.460000
0.280000 0.757500 0.460000
0.550000 0.757500 0.460000
0.820000 0.757500 0.460000
1.000000 0.757500 0.460000
0.010000 1.010000 0.460000
0.280000 1.010000 0.460000
0.550000 1.010000 0.460000
0.820000 1.010000 0.460000
1.000000 1.010000 0.460000
0.010000 0.000000 0.690000
0.280000 0.000000 0.690000
0.550000 0.000000 0.690000
0.820000 0.000000 0.690000
1.000000 0.000000 0.690000
0.010000 0.252500 0.690000
0.280000 0.252500 0.690000
0.550000 0.252500 0.690000
0.820000 0.252500 0.690000
1.000000 0.252500 0.690000
0.010000 0.505000 0.690000
0.280000 0.505000 0.690000
0.550000 0.505000 0.690000
0.820000 0.505000 0.690000
1.000000 0.505000 0.690000
0.010000 0.757500 0.690000
0.280000 0.757500 0.690000
0.550000 0.757500 0.690000
0.820000 0.757500 0.690000
1.000000 0.757500 0.690000
0.010000 1.010000 0.690000
0.280000 1.010000 0.690000
0.550000 1.010000 0.690000
0.820000 1.010000 0.690000
1.000000 1.010000 0.690000
0.010000 0.000000 0.920000
0.280000 0.000000 0.920000
0.550000 0.000000 0.920000
0.820000 0.000000 0.920000
1.000000 0.000000 0.920000
0.010000 0.252500 0.920000
0.280000 0.252500 0.920000
0.550000 0.252500 0.920000
0.820000 0.252500 0.920000
1.000000 0.252500 0.920000
0.010000 0.505000 0.920000
0.280000 0.505000 0.920000
0.550000 0.505000 0.920000
0.820000 0.505000 0.920000
1.000000 0.505000 0.920000
0.010000 0.757500 0.920000
0.280000 0.757500 0.920000
0.550000 0.757500 0.920000
0.820000 0.757500 0.920000
1.000000 0.757500 0.920000
0.010000 1.010000 0.920000
0.280000 1.010000 0.920000
0.550000 1.010000 0.920000
0.820000 1.010000 0.920000
1.000000 1.010000 0.920000
