presets/Calido suave.cube
TITLE "Calido suave"
LUT_3D_SIZE 9
0.010000 0.000000 0.000000
0.145000 0.000000 0.000000
0.280000 0.000000 0.000000
0.415000 0.000000 0.000000
0.550000 0.000000 0.000000
0.685000 0.000000 0.000000
0.820000 0.000000 0.000000
0.955000 0.000000 0.000000
1.000000 0.000000 0.000000
0.010000 0.126250 0.000000
0.145000 0.126250 0.000000
0.280000 0.126250 0.000000
0.415000 0.126250 0.000000
0.550000 0.126250 0.000000
0.685000 0.126250 0.000000
0.820000 0.126250 0.000000
0.955000 0.126250 0.000000
1.000000 0.126250 0.000000
0.010000 0.252500 0.000000
0.145000 0.252500 0.000000
0.280000 0.252500 0.000000
0.415000 0.252500 0.000000
0.550000 0.252500 0.000000
0.685000 0.252500 0.000000
0.820000 0.252500 0.000000
0.955000 0.252500 0.000000
1.000000 0.252500 0.000000
0.010000 0.378750 0.000000
0.145000 0.378750 0.000000
0.280000 0.378750 0.000000
0.415000 0.378750 0.000000
0.550000 0.378750 0.000000
0.685000 0.378750 0.000000
0.820000 0.378750 0.000000
0.955000 0.378750 0.000000
1.000000 0.378750 0.000000
0.010000 0.505000 0.000000
0.145000 0.505000 0.000000
0.280000 0.505000 0.000000
0.415000 0.505000 0.000000
0.550000 0.505000 0.000000
0.685000 0.505000 0.000000
0.820000 0.505000 0.000000
0.955000 0.505000 0.000000
1.000000 0.505000 0.000000
0.010000 0.631250 0.000000
0.145000 0.631250 0.000000
0.280000 0.631250 0.000000
0.415000 0.631250 0.000000
0.550000 0.631250 0.000000
0.685000 0.631250 0.000000
0.820000 0.631250 0.000000
0.955000 0.631250 0.000000
1.000000 0.631250 0.000000
0.010000 0.757500 0.000000
0.145000 0.757500 0.000000
0.280000 0.757500 0.000000
0.415000 0.757500 0.000000
0.550000 0.757500 0.000000
0.685000 0.757500 0.000000
0.820000 0.757500 0.000000
0.955000 0.757500 0.000000
1.000000 0.757500 0.000000
0.010000 0.883750 0.000000
0.145000 0.883750 0.000000
0.280000 0.883750 0.000000
0.415000 0.883750 0.000000
0.550000 0.883750 0.000000
0.685000 0.883750 0.000000
0.820000 0.883750 0.000000
0.955000 0.883750 0.000000
1.000000 0.883750 0.000000
0.010000 1.010000 0.000000
0.145000 1.010000 0.000000
0.280000 1.010000 0.000000
0.415000 1.010000 0.000000
0.550000 1.010000 0.000000
0.685000 1.010000 0.000000
0.820000 1.010000 0.000000
0.955000 1.010000 0.000000
1.000000 1.010000 0.000000
0.010000 0.000000 0.115000
0.145000 0.000000 0.115000
0.280000 0.000000 0.115000
0.415000 0.000000 0.115000
0.550000 0.000000 0.115000
0.685000 0.000000 0.115000
0.820000 0.000000 0.115000
0.955000 0.000000 0.115000
1.000000 0.000000 0.115000
0.010000 0.126250 0.115000
0.145000 0.126250 0.115000
0.280000 0.126250 0.115000
0.415000 0.126250 0.115000
0.550000 0.126250 0.115000
0.685000 0.126250 0.115000
0.820000 0.126250 0.115000
0.955000 0.126250 0.115000
1.000000 0.126250 0.115000
0.010000 0.252500 0.115000
0.145000 0.252500 0.115000
0.280000 0.252500 0.115000
0.415000 0.252500 0.115000
0.550000 0.252500 0.115000
0.685000 0.252500 0.115000
0.820000 0.252500 0.115000
0.955000 0.252500 0.115000
1.000000 0.252500 0.115000
0.010000 0.378750 0.115000
0.145000 0.378750 0.115000
0.280000 0.378750 0.115000
0.415000 0.378750 0.115000
0.550000 0.378750 0.115000
0.685000 0.378750 0.115000
0.820000 0.378750 0.115000
0.955000 0.378750 0.115000
1.000000 0.378750 0.115000
0.010000 0.505000 0.115000
0.145000 0.505000 0.115000
0.280000 0.505000 0.115000
0.415000 0.505000 0.115000
0.550000 0.505000 0.115000
0.685000 0.505000 0.115000
0.820000 0.505000 0.115000
0.955000 0.505000 0.115000
1.000000 0.505000 0.115000
0.010000 0.631250 0.115000
0.145000 0.631250 0.115000
0.280000 0.631250 0.115000
0.415000 0.631250 0.115000
0.550000 0.631250 0.115000
0.685000 0.631250 0.115000
0.820000 0.631250 0.115000
0.955000 0.631250 0.115000
1.000000 0.631250 0.115000
0.010000 0.757500 0.115000
0.145000 0.757500 0.115000
0.280000 0.757500 0.115000
0.415000 0.757500 0.115000
0.550000 0.757500 0.115000
0.685000 0.757500 0.115000
0.820000 0.757500 0.115000
0.955000 0.757500 0.115000
1.000000 0.757500 0.115000
0.010000 0.883750 0.115000
0.145000 0.883750 0.115000
0.280000 0.883750 0.115000
0.415000 0.883750 0.115000
0.550000 0.883750 0.115000
0.685000 0.883750 0.115000
0.820000 0.883750 0.115000
0.955000 0.883750 0.115000
1.000000 0.883750 0.115000
0.010000 1.010000 0.115000
0.145000 1.010000 0.115000
0.280000 1.010000 0.115000
0.415000 1.010000 0.115000
0.550000 1.010000 0.115000
0.685000 1.010000 0.115000
0.820000 1.010000 0.115000
0.955000 1.010000 0.115000
1.000000 1.010000 0.115000
0.010000 0.000000 0.230000
0.145000 0.000000 0.230000
0.280000 0.000000 0.230000
0.415000 0.000000 0.230000
0.550000 0.000000 0.230000
0.685000 0.000000 0.230000
0.820000 0.000000 0.230000
0.955000 0.000000 0.230000
1.000000 0.000000 0.230000
0.010000 0.126250 0.230000
0.145000 0.126250 0.230000
0.280000 0.126250 0.230000
0.415000 0.126250 0.230000
0.550000 0.126250 0.230000
0.685000 0.126250 0.230000
0.820000 0.126250 0.230000
0.955000 0.126250 0.230000
1.000000 0.126250 0.230000
0.010000 0.252500 0.230000
0.145000 0.252500 0.230000
0.280000 0.252500 0.230000
0.415000 0.252500 0.230000
0.550000 0.252500 0.230000
0.685000 0.252500 0.230000
0.820000 0.252500 0.230000
0.955000 0.252500 0.230000
1.000000 0.252500 0.230000
0.010000 0.378750 0.230000
0.145000 0.378750 0.230000
0.280000 0.378750 0.230000
0.415000 0.378750 0.230000
0.550000 0.378750 0.230000
0.685000 0.378750 0.230000
0.820000 0.378750 0.230000
0.955000 0.378750 0.230000
1.000000 0.378750 0.230000
0.010000 0.505000 0.230000
0.145000 0.505000 0.230000
0.280000 0.505000 0.230000
0.415000 0.505000 0.230000
0.550000 0.505000 0.230000
0.685000 0.505000 0.230000
0.820000 0.505000 0.230000
0.955000 0.505000 0.230000
1.000000 0.505000 0.230000
0.010000 0.631250 0.230000
0.145000 0.631250 0.230000
0.280000 0.631250 0.230000
0.415000 0.631250 0.230000
0.550000 0.631250 0.230000
0.685000 0.631250 0.230000
0.820000 0.631250 0.230000
0.955000 0.631250 0.230000
1.000000 0.631250 0.230000
0.010000 0.757500 0.230000
0.145000 0.757500 0.230000
0.280000 0.757500 0.230000
0.415000 0.757500 0.230000
0.550000 0.757500 0.230000
0.685000 0.757500 0.230000
0.820000 0.757500 0.230000
0.955000 0.757500 0.230000
1.000000 0.757500 0.230000
0.010000 0.883750 0.230000
0.145000 0.883750 0.230000
0.280000 0.883750 0.230000
0.415000 0.883750 0.230000
0.550000 0.883750 0.230000
0.685000 0.883750 0.230000
0.820000 0.883750 0.230000
0.955000 0.883750 0.230000
1.000000 0.883750 0.230000
0.010000 1.010000 0.230000
0.145000 1.010000 0.230000
0.280000 1.010000 0.230000
0.415000 1.010000 0.230000
0.550000 1.010000 0.230000
0.685000 1.010000 0.230000
0.820000 1.010000 0.230000
0.955000 1.010000 0.230000
1.000000 1.010000 0.230000
0.010000 0.000000 0.345000
0.145000 0.000000 0.345000
0.280000 0.000000 0.345000
0.415000 0.000000 0.345000
0.550000 0.000000 0.345000
0.685000 0.000000 0.345000
0.820000 0.000000 0.345000
0.955000 0.000000 0.345000
1.000000 0.000000 0.345000
0.010000 0.126250 0.345000
0.145000 0.126250 0.345000
0.280000 0.126250 0.345000
0.415000 0.126250 0.345000
0.550000 0.126250 0.345000
0.685000 0.126250 0.345000
0.820000 0.126250 0.345000
0.955000 0.126250 0.345000
1.000000 0.126250 0.345000
0.010000 0.252500 0.345000
0.145000 0.252500 0.345000
0.280000 0.252500 0.345000
0.415000 0.252500 0.345000
0.550000 0.252500 0.345000
0.685000 0.252500 0.345000
0.820000 0.252500 0.345000
0.955000 0.252500 0.345000
1.000000 0.252500 0.345000
0.010000 0.378750 0.345000
0.145000 0.378750 0.345000
0.280000 0.378750 0.345000
0.415000 0.378750 0.345000
0.550000 0.378750 0.345000
0.685000 0.378750 0.345000
0.820000 0.378750 0.345000
0.955000 0.378750 0.345000
1.000000 0.378750 0.345000
0.010000 0.505000 0.345000
0.145000 0.505000 0.345000
0.280000 0.505000 0.345000
0.415000 0.505000 0.345000
0.550000 0.505000 0.345000
0.685000 0.505000 0.345000
0.820000 0.505000 0.345000
0.955000 0.505000 0.345000
1.000000 0.505000 0.345000
0.010000 0.631250 0.345000
0.145000 0.631250 0.345000
0.280000 0.631250 0.345000
0.415000 0.631250 0.345000
0.550000 0.631250 0.345000
0.685000 0.631250 0.345000
0.820000 0.631250 0.345000
0.955000 0.631250 0.345000
1.000000 0.631250 0.345000
0.010000 0.757500 0.345000
0.145000 0.757500 0.345000
0.280000 0.757500 0.345000
0.415000 0.757500 0.345000
0.550000 0.757500 0.345000
0.685000 0.757500 0.345000
0.820000 0.757500 0.345000
0.955000 0.757500 0.345000
1.000000 0.757500 0.345000
0.010000 0.883750 0.345000
0.145000 0.883750 0.345000
0.280000 0.883750 0.345000
0.415000 0.883750 0.345000
0.550000 0.883750 0.345000
0.685000 0.883750 0.345000
0.820000 0.883750 0.345000
0.955000 0.883750 0.345000
1.000000 0.883750 0.345000
0.010000 1.010000 0.345000
0.145000 1.010000 0.345000
0.280000 1.010000 0.345000
0.415000 1.010000 0.345000
0.550000 1.010000 0.345000
0.685000 1.010000 0.345000
0.820000 1.010000 0.345000
0.955000 1.010000 0.345000
1.000000 1.010000 0.345000
0.010000 0.000000 0.460000
0.145000 0.000000 0.460000
0.280000 0.000000 0.460000
0.415000 0.000000 0.460000
0.550000 0.000000 0.460000
0.685000 0.000000 0.460000
0.820000 0.000000 0.460000
0.955000 0.000000 0.460000
1.000000 0.000000 0.460000
0.010000 0.126250 0.460000
0.145000 0.126250 0.460000
0.280000 0.126250 0.460000
0.415000 0.126250 0.460000
0.550000 0.126250 0.460000
0.685000 0.126250 0.460000
0.820000 0.126250 0.460000
0.955000 0.126250 0.460000
1.000000 0.126250 0.460000
0.010000 0.252500 0.460000
0.145000 0.252500 0.460000
0.280000 0.252500 0.460000
0.415000 0.252500 0.460000
0.550000 0.252500 0.460000
0.685000 0.252500 0.460000
0.820000 0.252500 0.460000
0.955000 0.252500 0.460000
1.000000 0.252500 0.460000
0.010000 0.378750 0.460000
0.145000 0.378750 0.460000
0.280000 0.378750 0.460000
0.415000 0.378750 0.460000
0.550000 0.378750 0.460000
0.685000 0.378750 0.460000
0.820000 0.378750 0.460000
0.955000 0.378750 0.460000
1.000000 0.378750 0.460000
0.010000 0.505000 0.460000
0.145000 0.505000 0.460000
0.280000 0.505000 0.460000
0.415000 0.505000 0.460000
0.550000 0.505000 0.460000
0.685000 0.505000 0.460000
0.820000 0.505000 0.460000
0.955000 0.505000 0.460000
1.000000 0.505000 0.460000
0.010000 0.631250 0.460000
0.145000 0.631250 0.460000
0.280000 0.631250 0.460000
0.415000 0.631250 0.460000
0.550000 0.631250 0.460000
0.685000 0.631250 0.460000
0.820000 0.631250 0.460000
0.955000 0.631250 0.460000
1.000000 0.631250 0.460000
0.010000 0.757500 0.460000
0.145000 0.757500 0.460000
0.280000 0.757500 0.460000
0.415000 0.757500 0.460000
0.550000 0.757500 0.460000
0.685000 0.757500 0.460000
0.820000 0.757500 0.460000
0.955000 0.757500 0.460000
1.000000 0.757500 0.460000
0.010000 0.883750 0.460000
0.145000 0.883750 0.460000
0.280000 0.883750 0.460000
0.415000 0.883750 0.460000
0.550000 0.883750 0.460000
0.685000 0.883750 0.460000
0.820000 0.883750 0.460000
0.955000 0.883750 0.460000
1.000000 0.883750 0.460000
0.010000 1.010000 0.460000
0.145000 1.010000 0.460000
0.280000 1.010000 0.460000
0.415000 1.010000 0.460000
0.550000 1.010000 0.460000
0.685000 1.010000 0.460000
0.820000 1.010000 0.460000
0.955000 1.010000 0.460000
1.000000 1.010000 0.460000
0.010000 0.000000 0.575000
0.145000 0.000000 0.575000
0.280000 0.000000 0.575000
0.415000 0.000000 0.575000
0.550000 0.000000 0.575000
0.685000 0.000000 0.575000
0.820000 0.000000 0.575000
0.955000 0.000000 0.575000
1.000000 0.000000 0.575000
0.010000 0.126250 0.575000
0.145000 0.126250 0.575000
0.280000 0.126250 0.575000
0.415000 0.126250 0.575000
0.550000 0.126250 0.575000
0.685000 0.126250 0.575000
0.820000 0.126250 0.575000
0.955000 0.126250 0.575000
1.000000 0.126250 0.575000
0.010000 0.252500 0.575000
0.145000 0.252500 0.575000
0.280000 0.252500 0.575000
0.415000 0.252500 0.575000
0.550000 0.252500 0.575000
0.685000 0.252500 0.575000
0.820000 0.252500 0.575000
0.955000 0.252500 0.575000
1.000000 0.252500 0.575000
0.010000 0.378750 0.575000
0.145000 0.378750 0.575000
0.280000 0.378750 0.575000
0.415000 0.378750 0.575000
0.550000 0.378750 0.575000
0.685000 0.378750 0.575000
0.820000 0.378750 0.575000
0.955000 0.378750 0.575000
1.000000 0.378750 0.575000
0.010000 0.505000 0.575000
0.145000 0.505000 0.575000
0.280000 0.505000 0.575000
0.415000 0.505000 0.575000
0.550000 0.505000 0.575000
0.685000 0.505000 0.575000
0.820000 0.505000 0.575000
0.955000 0.505000 0.575000
1.000000 0.505000 0.575000
0.010000 0.631250 0.575000
0.145000 0.631250 0.575000
0.280000 0.631250 0.575000
0.415000 0.631250 0.575000
0.550000 0.631250 0.575000
0.685000 0.631250 0.575000
0.820000 0.631250 0.575000
0.955000 0.631250 0.575000
1.000000 0.631250 0.575000
0.010000 0.757500 0.575000
0.145000 0.757500 0.575000
0.280000 0.757500 0.575000
0.415000 0.757500 0.575000
0.550000 0.757500 0.575000
0.685000 0.757500 0.575000
0.820000 0.757500 0.575000
0.955000 0.757500 0.575000
1.000000 0.757500 0.575000
0.010000 0.883750 0.575000
0.145000 0.883750 0.575000
0.280000 0.883750 0.575000
0.415000 0.883750 0.575000
0.550000 0.883750 0.575000
0.685000 0.883750 0.575000
0.820000 0.883750 0.575000
0.955000 0.883750 0.575000
1.000000 0.883750 0.575000
0.010000 1.010000 0.575000
0.145000 1.010000 0.575000
0.280000 1.010000 0.575000
0.415000 1.010000 0.575000
0.550000 1.010000 0.575000
0.685000 1.010000 0.575000
0.820000 1.010000 0.575000
0.955000 1.010000 0.575000
1.000000 1.010000 0.575000
0.010000 0.000000 0.690000
0.145000 0.000000 0.690000
0.280000 0.000000 0.690000
0.415000 0.000000 0.690000
0.550000 0.000000 0.690000
0.685000 0.000000 0.690000
0.820000 0.000000 0.690000
0.955000 0.000000 0.690000
1.000000 0.000000 0.690000
0.010000 0.126250 0.690000
0.145000 0.126250 0.690000
0.280000 0.126250 0.690000
0.415000 0.126250 0.690000
0.550000 0.126250 0.690000
0.685000 0.126250 0.690000
0.820000 0.126250 0.690000
0.955000 0.126250 0.690000
1.000000 0.126250 0.690000
0.010000 0.252500 0.690000
0.145000 0.252500 0.690000
0.280000 0.252500 0.690000
0.415000 0.252500 0.690000
0.550000 0.252500 0.690000
0.685000 0.252500 0.690000
0.820000 0.252500 0.690000
0.955000 0.252500 0.690000
1.000000 0.252500 0.690000
0.010000 0.378750 0.690000
0.145000 0.378750 0.690000
0.280000 0.378750 0.690000
0.415000 0.378750 0.690000
0.550000 0.378750 0.690000
0.685000 0.378750 0.690000
0.820000 0.378750 0.690000
0.955000 0.378750 0.690000
1.000000 0.378750 0.690000
0.010000 0.505000 0.690000
0.145000 0.505000 0.690000
0.280000 0.505000 0.690000
0.415000 0.505000 0.690000
0.550000 0.505000 0.690000
0.685000 0.505000 0.690000
0.820000 0.505000 0.690000
0.955000 0.505000 0.690000
1.000000 0.505000 0.690000
0.010000 0.631250 0.690000
0.145000 0.631250 0.690000
0.280000 0.631250 0.690000
0.415000 0.631250 0.690000
0.550000 0.631250 0.690000
0.685000 0.631250 0.690000
0.820000 0.631250 0.690000
0.955000 0.631250 0.690000
1.000000 0.631250 0.690000
0.010000 0.757500 0.690000
0.145000 0.757500 0.690000
0.280000 0.757500 0.690000
0.415000 0.757500 0.690000
0.550000 0.757500 0.690000
0.685000 0.757500 0.690000
0.820000 0.757500 0.690000
0.955000 0.757500 0.690000
1.000000 0.757500 0.690000
0.010000 0.883750 0.690000
0.145000 0.883750 0.690000
0.280000 0.883750 0.690000
0.415000 0.883750 0.690000
0.550000 0.883750 0.690000
0.685000 0.883750 0.690000
0.820000 0.883750 0.690000
0.955000 0.883750 0.690000
1.000000 0.883750 0.690000
0.010000 1.010000 0.690000
0.145000 1.010000 0.690000
0.280000 1.010000 0.690000
0.415000 1.010000 0.690000
0.550000 1.010000 0.690000
0.685000 1.010000 0.690000
0.820000 1.010000 0.690000
0.955000 1.010000 0.690000
1.000000 1.010000 0.690000
0.010000 0.000000 0.805000
0.145000 0.000000 0.805000
0.280000 0.000000 0.805000
0.415000 0.000000 0.805000
0.550000 0.000000 0.805000
0.685000 0.000000 0.805000
0.820000 0.000000 0.805000
0.955000 0.000000 0.805000
1.000000 0.000000 0.805000
0.010000 0.126250 0.805000
0.145000 0.126250 0.805000
0.280000 0.126250 0.805000
0.415000 0.126250 0.805000
0.550000 0.126250 0.805000
0.685000 0.126250 0.805000
0.820000 0.126250 0.805000
0.955000 0.126250 0.805000
1.000000 0.126250 0.805000
0.010000 0.252500 0.805000
0.145000 0.252500 0.805000
0.280000 0.252500 0.805000
0.415000 0.252500 0.805000
0.550000 0.252500 0.805000
0.685000 0.252500 0.805000
0.820000 0.252500 0.805000
0.955000 0.252500 0.805000
1.000000 0.252500 0.805000
0.010000 0.378750 0.805000
0.145000 0.378750 0.805000
0.280000 0.378750 0.805000
0.415000 0.378750 0.805000
0.550000 0.378750 0.805000
0.685000 0.378750 0.805000
0.820000 0.378750 0.805000
0.955000 0.378750 0.805000
1.000000 0.378750 0.805000
0.010000 0.505000 0.805000
0.145000 0.505000 0.805000
0.280000 0.505000 0.805000
0.415000 0.505000 0.805000
0.550000 0.505000 0.805000
0.685000 0.505000 0.805000
0.820000 0.505000 0.805000
0.955000 0.505000 0.805000
1.000000 0.505000 0.805000
0.010000 0.631250 0.805000
0.145000 0.631250 0.805000
0.280000 0.631250 0.805000
0.415000 0.631250 0.805000
0.550000 0.631250 0.805000
0.685000 0.631250 0.805000
0.820000 0.631250 0.805000
0.955000 0.631250 0.805000
1.000000 0.631250 0.805000
0.010000 0.757500 0.805000
0.145000 0.757500 0.805000
0.280000 0.757500 0.805000
0.415000 0.757500 0.805000
0.550000 0.757500 0.805000
0.685000 0.757500 0.805000
0.820000 0.757500 0.805000
0.955000 0.757500 0.805000
1.000000 0.757500 0.805000
0.010000 0.883750 0.805000
0.145000 0.883750 0.805000
0.280000 0.883750 0.805000
0.415000 0.883750 0.805000
0.550000 0.883750 0.805000
0.685000 0.883750 0.805000
0.820000 0.883750 0.805000
0.955000 0.883750 0.805000
1.000000 0.883750 0.805000
0.010000 1.010000 0.805000
0.145000 1.010000 0.805000
0.280000 1.010000 0.805000
0.415000 1.010000 0.805000
0.550000 1.010000 0.805000
0.685000 1.010000 0.805000
0.820000 1.010000 0.805000
0.955000 1.010000 0.805000
1.000000 1.010000 0.805000
0.010000 0.000000 0.920000
0.145000 0.000000 0.920000
0.280000 0.000000 0.920000
0.415000 0.000000 0.920000
0.550000 0.000000 0.920000
0.685000 0.000000 0.920000
0.820000 0.000000 0.920000
0.955000 0.000000 0.920000
1.000000 0.000000 0.920000
0.010000 0.126250 0.920000
0.145000 0.126250 0.920000
0.280000 0.126250 0.920000
0.415000 0.126250 0.920000
0.550000 0.126250 0.920000
0.685000 0.126250 0.920000
0.820000 0.126250 0.920000
0.955000 0.126250 0.920000
1.000000 0.126250 0.920000
0.010000 0.252500 0.920000
0.145000 0.252500 0.920000
0.280000 0.252500 0.920000
0.415000 0.252500 0.920000
0.550000 0.252500 0.920000
0.685000 0.252500 0.920000
0.820000 0.252500 0.920000
0.955000 0.252500 0.920000
1.000000 0.252500 0.920000
0.010000 0.378750 0.920000
0.145000 0.378750 0.920000
0.280000 0.378750 0.920000
0.415000 0.378750 0.920000
0.550000 0.378750 0.920000
0.685000 0.378750 0.920000
0.820000 0.378750 0.920000
0.955000 0.378750 0.920000
1.000000 0.378750 0.920000
0.010000 0.505000 0.920000
0.145000 0.505000 0.920000
0.280000 0.505000 0.920000
0.415000 0.505000 0.920000
0.550000 0.505000 0.920000
0.685000 0.505000 0.920000
0.820000 0.505000 0.920000
0.955000 0.505000 0.920000
1.000000 0.505000 0.920000
0.010000 0.631250 0.920000
0.145000 0.631250 0.920000
0.280000 0.631250 0.920000
0.415000 0.631250 0.920000
0.550000 0.631250 0.920000
0.685000 0.631250 0.920000
0.820000 0.631250 0.920000
0.955000 0.631250 0.920000
1.000000 0.631250 0.920000
0.010000 0.757500 0.920000
0.145000 0.757500 0.920000
0.280000 0.757500 0.920000
0.415000 0.757500 0.920000
0.550000 0.757500 0.920000
0.685000 0.757500 0.920000
0.820000 0.757500 0.920000
0.955000 0.757500 0.920000
1.000000 0.757500 0.920000
0.010000 0.883750 0.920000
0.145000 0.883750 0.920000
0.280000 0.883750 0.920000
0.415000 0.883750 0.920000
0.550000 0.883750 0.920000
0.685000 0.883750 0.920000
0.820000 0.883750 0.920000
0.955000 0.883750 0.920000
1.000000 0.883750 0.920000
0.010000 1.010000 0.920000
0.145000 1.010000 0.920000
0.280000 1.010000 0.920000
0.415000 1.010000 0.920000
0.550000 1.010000 0.920000
0.685000 1.010000 0.920000
0.820000 1.010000 0.920000
0.955000 1.010000 0.920000
1.000000 1.010000 0.920000
