presets/Calido suave.cube
TITLE "Calido suave"
LUT_3D_SIZE 17
0.010000 0.000000 0.000000
0.077500 0.000000 0.000000
0.145000 0.000000 0.000000
0.212500 0.000000 0.000000
0.280000 0.000000 0.000000
0.347500 0.000000 0.000000
0.415000 0.000000 0.000000
0.482500 0.000000 0.000000
0.550000 0.000000 0.000000
0.617500 0.000000 0.000000
0.685000 0.000000 0.000000
0.752500 0.000000 0.000000
0.820000 0.000000 0.000000
0.887500 0.000000 0.000000
0.955000 0.000000 0.000000
1.000000 0.000000 0.000000
1.000000 0.000000 0.000000
0.010000 0.063125 0.000000
0.077500 0.063125 0.000000
0.145000 0.063125 0.000000
0.212500 0.063125 0.000000
0.280000 0.063125 0.000000
0.347500 0.063125 0.000000
0.415000 0.063125 0.000000
0.482500 0.063125 0.000000
0.550000 0.063125 0.000000
0.617500 0.063125 0.000000
0.685000 0.063125 0.000000
0.752500 0.063125 0.000000
0.820000 0.063125 0.000000
0.887500 0.063125 0.000000
0.955000 0.063125 0.000000
1.000000 0.063125 0.000000
1.000000 0.063125 0.000000
0.010000 0.126250 0.000000
0.077500 0.126250 0.000000
0.145000 0.126250 0.000000
0.212500 0.126250 0.000000
0.280000 0.126250 0.000000
0.347500 0.126250 0.000000
0.415000 0.126250 0.000000
0.482500 0.126250 0.000000
0.550000 0.126250 0.000000
0.617500 0.126250 0.000000
0.685000 0.126250 0.000000
0.752500 0.126250 0.000000
0.820000 0.126250 0.000000
0.887500 0.126250 0.000000
0.955000 0.126250 0.000000
1.000000 0.126250 0.000000
1.000000 0.126250 0.000000
0.010000 0.189375 0.000000
0.077500 0.189375 0.000000
0.145000 0.189375 0.000000
0.212500 0.189375 0.000000
0.280000 0.189375 0.000000
0.347500 0.189375 0.000000
0.415000 0.189375 0.000000
0.482500 0.189375 0.000000
0.550000 0.189375 0.000000
0.617500 0.189375 0.000000
0.685000 0.189375 0.000000
0.752500 0.189375 0.000000
0.820000 0.189375 0.000000
0.887500 0.189375 0.000000
0.955000 0.189375 0.000000
1.000000 0.189375 0.000000
1.000000 0.189375 0.000000
0.010000 0.252500 0.000000
0.077500 0.252500 0.000000
0.145000 0.252500 0.000000
0.212500 0.252500 0.000000
0.280000 0.252500 0.000000
0.347500 0.252500 0.000000
0.415000 0.252500 0.000000
0.482500 0.252500 0.000000
0.550000 0.252500 0.000000
0.617500 0.252500 0.000000
0.685000 0.252500 0.000000
0.752500 0.252500 0.000000
0.820000 0.252500 0.000000
0.887500 0.252500 0.000000
0.955000 0.252500 0.000000
1.000000 0.252500 0.000000
1.000000 0.252500 0.000000
0.010000 0.315625 0.000000
0.077500 0.315625 0.000000
0.145000 0.315625 0.000000
0.212500 0.315625 0.000000
0.280000 0.315625 0.000000
0.347500 0.315625 0.000000
0.415000 0.315625 0.000000
0.482500 0.315625 0.000000
0.550000 0.315625 0.000000
0.617500 0.315625 0.000000
0.685000 0.315625 0.000000
0.752500 0.315625 0.000000
0.820000 0.315625 0.000000
0.887500 0.315625 0.000000
0.955000 0.315625 0.000000
1.000000 0.315625 0.000000
1.000000 0.315625 0.000000
0.010000 0.378750 0.000000
0.077500 0.378750 0.000000
0.145000 0.378750 0.000000
0.212500 0.378750 0.000000
0.280000 0.378750 0.000000
0.347500 0.378750 0.000000
0.415000 0.378750 0.000000
0.482500 0.378750 0.000000
0.550000 0.378750 0.000000
0.617500 0.378750 0.000000
0.685000 0.378750 0.000000
0.752500 0.378750 0.000000
0.820000 0.378750 0.000000
0.887500 0.378750 0.000000
0.955000 0.378750 0.000000
1.000000 0.378750 0.000000
1.000000 0.378750 0.000000
0.010000 0.441875 0.000000
0.077500 0.441875 0.000000
0.145000 0.441875 0.000000
0.212500 0.441875 0.000000
0.280000 0.441875 0.000000
0.347500 0.441875 0.000000
0.415000 0.441875 0.000000
0.482500 0.441875 0.000000
0.550000 0.441875 0.000000
0.617500 0.441875 0.000000
0.685000 0.441875 0.000000
0.752500 0.441875 0.000000
0.820000 0.441875 0.000000
0.887500 0.441875 0.000000
0.955000 0.441875 0.000000
1.000000 0.441875 0.000000
1.000000 0.441875 0.000000
0.010000 0.505000 0.000000
0.077500 0.505000 0.000000
0.145000 0.505000 0.000000
0.212500 0.505000 0.000000
0.280000 0.505000 0.000000
0.347500 0.505000 0.000000
0.415000 0.505000 0.000000
0.482500 0.505000 0.000000
0.550000 0.505000 0.000000
0.617500 0.505000 0.000000
0.685000 0.505000 0.000000
0.752500 0.505000 0.000000
0.820000 0.505000 0.000000
0.887500 0.505000 0.000000
0.955000 0.505000 0.000000
1.000000 0.505000 0.000000
1.000000 0.505000 0.000000
0.010000 0.568125 0.000000
0.077500 0.568125 0.000000
0.145000 0.568125 0.000000
0.212500 0.568125 0.000000
0.280000 0.568125 0.000000
0.347500 0.568125 0.000000
0.415000 0.568125 0.000000
0.482500 0.568125 0.000000
0.550000 0.568125 0.000000
0.617500 0.568125 0.000000
0.685000 0.568125 0.000000
0.752500 0.568125 0.000000
0.820000 0.568125 0.000000
0.887500 0.568125 0.000000
0.955000 0.568125 0.000000
1.000000 0.568125 0.000000
1.000000 0.568125 0.000000
0.010000 0.631250 0.000000
0.077500 0.631250 0.000000
0.145000 0.631250 0.000000
0.212500 0.631250 0.000000
0.280000 0.631250 0.000000
0.347500 0.631250 0.000000
0.415000 0.631250 0.000000
0.482500 0.631250 0.000000
0.550000 0.631250 0.000000
0.617500 0.631250 0.000000
0.685000 0.631250 0.000000
0.752500 0.631250 0.000000
0.820000 0.631250 0.000000
0.887500 0.631250 0.000000
0.955000 0.631250 0.000000
1.000000 0.631250 0.000000
1.000000 0.631250 0.000000
0.010000 0.694375 0.000000
0.077500 0.694375 0.000000
0.145000 0.694375 0.000000
0.212500 0.694375 0.000000
0.280000 0.694375 0.000000
0.347500 0.694375 0.000000
0.415000 0.694375 0.000000
0.482500 0.694375 0.000000
0.550000 0.694375 0.000000
0.617500 0.694375 0.000000
0.685000 0.694375 0.000000
0.752500 0.694375 0.000000
0.820000 0.694375 0.000000
0.887500 0.694375 0.000000
0.955000 0.694375 0.000000
1.000000 0.694375 0.000000
1.000000 0.694375 0.000000
0.010000 0.757500 0.000000
0.077500 0.757500 0.000000
0.145000 0.757500 0.000000
0.212500 0.757500 0.000000
0.280000 0.757500 0.000000
0.347500 0.757500 0.000000
0.415000 0.757500 0.000000
0.482500 0.757500 0.000000
0.550000 0.757500 0.000000
0.617500 0.757500 0.000000
0.685000 0.757500 0.000000
0.752500 0.757500 0.000000
0.820000 0.757500 0.000000
0.887500 0.757500 0.000000
0.955000 0.757500 0.000000
1.000000 0.757500 0.000000
1.000000 0.757500 0.000000
0.010000 0.820625 0.000000
0.077500 0.820625 0.000000
0.145000 0.820625 0.000000
0.212500 0.820625 0.000000
0.280000 0.820625 0.000000
0.347500 0.820625 0.000000
0.415000 0.820625 0.000000
0.482500 0.820625 0.000000
0.550000 0.820625 0.000000
0.617500 0.820625 0.000000
0.685000 0.820625 0.000000
0.752500 0.820625 0.000000
0.820000 0.820625 0.000000
0.887500 0.820625 0.000000
0.955000 0.820625 0.000000
1.000000 0.820625 0.000000
1.000000 0.820625 0.000000
0.010000 0.883750 0.000000
0.077500 0.883750 0.000000
0.145000 0.883750 0.000000
0.212500 0.883750 0.000000
0.280000 0.883750 0.000000
0.347500 0.883750 0.000000
0.415000 0.883750 0.000000
0.482500 0.883750 0.000000
0.550000 0.883750 0.000000
0.617500 0.883750 0.000000
0.685000 0.883750 0.000000
0.752500 0.883750 0.000000
0.820000 0.883750 0.000000
0.887500 0.883750 0.000000
0.955000 0.883750 0.000000
1.000000 0.883750 0.000000
1.000000 0.883750 0.000000
0.010000 0.946875 0.000000
0.077500 0.946875 0.000000
0.145000 0.946875 0.000000
0.212500 0.946875 0.000000
0.280000 0.946875 0.000000
0.347500 0.946875 0.000000
0.415000 0.946875 0.000000
0.482500 0.946875 0.000000
0.550000 0.946875 0.000000
0.617500 0.946875 0.000000
0.685000 0.946875 0.000000
0.752500 0.946875 0.000000
0.820000 0.946875 0.000000
0.887500 0.946875 0.000000
0.955000 0.946875 0.000000
1.000000 0.946875 0.000000
1.000000 0.946875 0.000000
0.010000 1.010000 0.000000
0.077500 1.010000 0.000000
0.145000 1.010000 0.000000
0.212500 1.010000 0.000000
0.280000 1.010000 0.000000
0.347500 1.010000 0.000000
0.415000 1.010000 0.000000
0.482500 1.010000 0.000000
0.550000 1.010000 0.000000
0.617500 1.010000 0.000000
0.685000 1.010000 0.000000
0.752500 1.010000 0.000000
0.820000 1.010000 0.000000
0.887500 1.010000 0.000000
0.955000 1.010000 0.000000
1.000000 1.010000 0.000000
1.000000 1.010000 0.000000
0.010000 0.000000 0.057500
0.077500 0.000000 0.057500
0.145000 0.000000 0.057500
0.212500 0.000000 0.057500
0.280000 0.000000 0.057500
0.347500 0.000000 0.057500
0.415000 0.000000 0.057500
0.482500 0.000000 0.057500
0.550000 0.000000 0.057500
0.617500 0.000000 0.057500
0.685000 0.000000 0.057500
0.752500 0.000000 0.057500
0.820000 0.000000 0.057500
0.887500 0.000000 0.057500
0.955000 0.000000 0.057500
1.000000 0.000000 0.057500
1.000000 0.000000 0.057500
0.010000 0.063125 0.057500
0.077500 0.063125 0.057500
0.145000 0.063125 0.057500
0.212500 0.063125 0.057500
0.280000 0.063125 0.057500
0.347500 0.063125 0.057500
0.415000 0.063125 0.057500
0.482500 0.063125 0.057500
0.550000 0.063125 0.057500
0.617500 0.063125 0.057500
0.685000 0.063125 0.057500
0.752500 0.063125 0.057500
0.820000 0.063125 0.057500
0.887500 0.063125 0.057500
0.955000 0.063125 0.057500
1.000000 0.063125 0.057500
1.000000 0.063125 0.057500
0.010000 0.126250 0.057500
0.077500 0.126250 0.057500
0.145000 0.126250 0.057500
0.212500 0.126250 0.057500
0.280000 0.126250 0.057500
0.347500 0.126250 0.057500
0.415000 0.126250 0.057500
0.482500 0.126250 0.057500
0.550000 0.126250 0.057500
0.617500 0.126250 0.057500
0.685000 0.126250 0.057500
0.752500 0.126250 0.057500
0.820000 0.126250 0.057500
0.887500 0.126250 0.057500
0.955000 0.126250 0.057500
1.000000 0.126250 0.057500
1.000000 0.126250 0.057500
0.010000 0.189375 0.057500
0.077500 0.189375 0.057500
0.145000 0.189375 0.057500
0.212500 0.189375 0.057500
0.280000 0.189375 0.057500
0.347500 0.189375 0.057500
0.415000 0.189375 0.057500
0.482500 0.189375 0.057500
0.550000 0.189375 0.057500
0.617500 0.189375 0.057500
0.685000 0.189375 0.057500
0.752500 0.189375 0.057500
0.820000 0.189375 0.057500
0.887500 0.189375 0.057500
0.955000 0.189375 0.057500
1.000000 0.189375 0.057500
1.000000 0.189375 0.057500
0.010000 0.252500 0.057500
0.077500 0.252500 0.057500
0.145000 0.252500 0.057500
0.212500 0.252500 0.057500
0.280000 0.252500 0.057500
0.347500 0.252500 0.057500
0.415000 0.252500 0.057500
0.482500 0.252500 0.057500
0.550000 0.252500 0.057500
0.617500 0.252500 0.057500
0.685000 0.252500 0.057500
0.752500 0.252500 0.057500
0.820000 0.252500 0.057500
0.887500 0.252500 0.057500
0.955000 0.252500 0.057500
1.000000 0.252500 0.057500
1.000000 0.252500 0.057500
0.010000 0.315625 0.057500
0.077500 0.315625 0.057500
0.145000 0.315625 0.057500
0.212500 0.315625 0.057500
0.280000 0.315625 0.057500
0.347500 0.315625 0.057500
0.415000 0.315625 0.057500
0.482500 0.315625 0.057500
0.550000 0.315625 0.057500
0.617500 0.315625 0.057500
0.685000 0.315625 0.057500
0.752500 0.315625 0.057500
0.820000 0.315625 0.057500
0.887500 0.315625 0.057500
0.955000 0.315625 0.057500
1.000000 0.315625 0.057500
1.000000 0.315625 0.057500
0.010000 0.378750 0.057500
0.077500 0.378750 0.057500
0.145000 0.378750 0.057500
0.212500 0.378750 0.057500
0.280000 0.378750 0.057500
0.347500 0.378750 0.057500
0.415000 0.378750 0.057500
0.482500 0.378750 0.057500
0.550000 0.378750 0.057500
0.617500 0.378750 0.057500
0.685000 0.378750 0.057500
0.752500 0.378750 0.057500
0.820000 0.378750 0.057500
0.887500 0.378750 0.057500
0.955000 0.378750 0.057500
1.000000 0.378750 0.057500
1.000000 0.378750 0.057500
0.010000 0.441875 0.057500
0.077500 0.441875 0.057500
0.145000 0.441875 0.057500
0.212500 0.441875 0.057500
0.280000 0.441875 0.057500
0.347500 0.441875 0.057500
0.415000 0.441875 0.057500
0.482500 0.441875 0.057500
0.550000 0.441875 0.057500
0.617500 0.441875 0.057500
0.685000 0.441875 0.057500
0.752500 0.441875 0.057500
0.820000 0.441875 0.057500
0.887500 0.441875 0.057500
0.955000 0.441875 0.057500
1.000000 0.441875 0.057500
1.000000 0.441875 0.057500
0.010000 0.505000 0.057500
0.077500 0.505000 0.057500
0.145000 0.505000 0.057500
0.212500 0.505000 0.057500
0.280000 0.505000 0.057500
0.347500 0.505000 0.057500
0.415000 0.505000 0.057500
0.482500 0.505000 0.057500
0.550000 0.505000 0.057500
0.617500 0.505000 0.057500
0.685000 0.505000 0.057500
0.752500 0.505000 0.057500
0.820000 0.505000 0.057500
0.887500 0.505000 0.057500
0.955000 0.505000 0.057500
1.000000 0.505000 0.057500
1.000000 0.505000 0.057500
0.010000 0.568125 0.057500
0.077500 0.568125 0.057500
0.145000 0.568125 0.057500
0.212500 0.568125 0.057500
0.280000 0.568125 0.057500
0.347500 0.568125 0.057500
0.415000 0.568125 0.057500
0.482500 0.568125 0.057500
0.550000 0.568125 0.057500
0.617500 0.568125 0.057500
0.685000 0.568125 0.057500
0.752500 0.568125 0.057500
0.820000 0.568125 0.057500
0.887500 0.568125 0.057500
0.955000 0.568125 0.057500
1.000000 0.568125 0.057500
1.000000 0.568125 0.057500
0.010000 0.631250 0.057500
0.077500 0.631250 0.057500
0.145000 0.631250 0.057500
0.212500 0.631250 0.057500
0.280000 0.631250 0.057500
0.347500 0.631250 0.057500
0.415000 0.631250 0.057500
0.482500 0.631250 0.057500
0.550000 0.631250 0.057500
0.617500 0.631250 0.057500
0.685000 0.631250 0.057500
0.752500 0.631250 0.057500
0.820000 0.631250 0.057500
0.887500 0.631250 0.057500
0.955000 0.631250 0.057500
1.000000 0.631250 0.057500
1.000000 0.631250 0.057500
0.010000 0.694375 0.057500
0.077500 0.694375 0.057500
0.145000 0.694375 0.057500
0.212500 0.694375 0.057500
0.280000 0.694375 0.057500
0.347500 0.694375 0.057500
0.415000 0.694375 0.057500
0.482500 0.694375 0.057500
0.550000 0.694375 0.057500
0.617500 0.694375 0.057500
0.685000 0.694375 0.057500
0.752500 0.694375 0.057500
0.820000 0.694375 0.057500
0.887500 0.694375 0.057500
0.955000 0.694375 0.057500
1.000000 0.694375 0.057500
1.000000 0.694375 0.057500
0.010000 0.757500 0.057500
0.077500 0.757500 0.057500
0.145000 0.757500 0.057500
0.212500 0.757500 0.057500
0.280000 0.757500 0.057500
0.347500 0.757500 0.057500
0.415000 0.757500 0.057500
0.482500 0.757500 0.057500
0.550000 0.757500 0.057500
0.617500 0.757500 0.057500
0.685000 0.757500 0.057500
0.752500 0.757500 0.057500
0.820000 0.757500 0.057500
0.887500 0.757500 0.057500
0.955000 0.757500 0.057500
1.000000 0.757500 0.057500
1.000000 0.757500 0.057500
0.010000 0.820625 0.057500
0.077500 0.820625 0.057500
0.145000 0.820625 0.057500
0.212500 0.820625 0.057500
0.280000 0.820625 0.057500
0.347500 0.820625 0.057500
0.415000 0.820625 0.057500
0.482500 0.820625 0.057500
0.550000 0.820625 0.057500
0.617500 0.820625 0.057500
0.685000 0.820625 0.057500
0.752500 0.820625 0.057500
0.820000 0.820625 0.057500
0.887500 0.820625 0.057500
0.955000 0.820625 0.057500
1.000000 0.820625 0.057500
1.000000 0.820625 0.057500
0.010000 0.883750 0.057500
0.077500 0.883750 0.057500
0.145000 0.883750 0.057500
0.212500 0.883750 0.057500
0.280000 0.883750 0.057500
0.347500 0.883750 0.057500
0.415000 0.883750 0.057500
0.482500 0.883750 0.057500
0.550000 0.883750 0.057500
0.617500 0.883750 0.057500
0.685000 0.883750 0.057500
0.752500 0.883750 0.057500
0.820000 0.883750 0.057500
0.887500 0.883750 0.057500
0.955000 0.883750 0.057500
1.000000 0.883750 0.057500
1.000000 0.883750 0.057500
0.010000 0.946875 0.057500
0.077500 0.946875 0.057500
0.145000 0.946875 0.057500
0.212500 0.946875 0.057500
0.280000 0.946875 0.057500
0.347500 0.946875 0.057500
0.415000 0.946875 0.057500
0.482500 0.946875 0.057500
0.550000 0.946875 0.057500
0.617500 0.946875 0.057500
0.685000 0.946875 0.057500
0.752500 0.946875 0.057500
0.820000 0.946875 0.057500
0.887500 0.946875 0.057500
0.955000 0.946875 0.057500
1.000000 0.946875 0.057500
1.000000 0.946875 0.057500
0.010000 1.010000 0.057500
0.077500 1.010000 0.057500
0.145000 1.010000 0.057500
0.212500 1.010000 0.057500
0.280000 1.010000 0.057500
0.347500 1.010000 0.057500
0.415000 1.010000 0.057500
0.482500 1.010000 0.057500
0.550000 1.010000 0.057500
0.617500 1.010000 0.057500
0.685000 1.010000 0.057500
0.752500 1.010000 0.057500
0.820000 1.010000 0.057500
0.887500 1.010000 0.057500
0.955000 1.010000 0.057500
1.000000 1.010000 0.057500
1.000000 1.010000 0.057500
0.010000 0.000000 0.115000
0.077500 0.000000 0.115000
0.145000 0.000000 0.115000
0.212500 0.000000 0.115000
0.280000 0.000000 0.115000
0.347500 0.000000 0.115000
0.415000 0.000000 0.115000
0.482500 0.000000 0.115000
0.550000 0.000000 0.115000
0.617500 0.000000 0.115000
0.685000 0.000000 0.115000
0.752500 0.000000 0.115000
0.820000 0.000000 0.115000
0.887500 0.000000 0.115000
0.955000 0.000000 0.115000
1.000000 0.000000 0.115000
1.000000 0.000000 0.115000
0.010000 0.063125 0.115000
0.077500 0.063125 0.115000
0.145000 0.063125 0.115000
0.212500 0.063125 0.115000
0.280000 0.063125 0.115000
0.347500 0.063125 0.115000
0.415000 0.063125 0.115000
0.482500 0.063125 0.115000
0.550000 0.063125 0.115000
0.617500 0.063125 0.115000
0.685000 0.063125 0.115000
0.752500 0.063125 0.115000
0.820000 0.063125 0.115000
0.887500 0.063125 0.115000
0.955000 0.063125 0.115000
1.000000 0.063125 0.115000
1.000000 0.063125 0.115000
0.010000 0.126250 0.115000
0.077500 0.126250 0.115000
0.145000 0.126250 0.115000
0.212500 0.126250 0.115000
0.280000 0.126250 0.115000
0.347500 0.126250 0.115000
0.415000 0.126250 0.115000
0.482500 0.126250 0.115000
0.550000 0.126250 0.115000
0.617500 0.126250 0.115000
0.685000 0.126250 0.115000
0.752500 0.126250 0.115000
0.820000 0.126250 0.115000
0.887500 0.126250 0.115000
0.955000 0.126250 0.115000
1.000000 0.126250 0.115000
1.000000 0.126250 0.115000
0.010000 0.189375 0.115000
0.077500 0.189375 0.115000
0.145000 0.189375 0.115000
0.212500 0.189375 0.115000
0.280000 0.189375 0.115000
0.347500 0.189375 0.115000
0.415000 0.189375 0.115000
0.482500 0.189375 0.115000
0.550000 0.189375 0.115000
0.617500 0.189375 0.115000
0.685000 0.189375 0.115000
0.752500 0.189375 0.115000
0.820000 0.189375 0.115000
0.887500 0.189375 0.115000
0.955000 0.189375 0.115000
1.000000 0.189375 0.115000
1.000000 0.189375 0.115000
0.010000 0.252500 0.115000
0.077500 0.252500 0.115000
0.145000 0.252500 0.115000
0.212500 0.252500 0.115000
0.280000 0.252500 0.115000
0.347500 0.252500 0.115000
0.415000 0.252500 0.115000
0.482500 0.252500 0.115000
0.550000 0.252500 0.115000
0.617500 0.252500 0.115000
0.685000 0.252500 0.115000
0.752500 0.252500 0.115000
0.820000 0.252500 0.115000
0.887500 0.252500 0.115000
0.955000 0.252500 0.115000
1.000000 0.252500 0.115000
1.000000 0.252500 0.115000
0.010000 0.315625 0.115000
0.077500 0.315625 0.115000
0.145000 0.315625 0.115000
0.212500 0.315625 0.115000
0.280000 0.315625 0.115000
0.347500 0.315625 0.115000
0.415000 0.315625 0.115000
0.482500 0.315625 0.115000
0.550000 0.315625 0.115000
0.617500 0.315625 0.115000
0.685000 0.315625 0.115000
0.752500 0.315625 0.115000
0.820000 0.315625 0.115000
0.887500 0.315625 0.115000
0.955000 0.315625 0.115000
1.000000 0.315625 0.115000
1.000000 0.315625 0.115000
0.010000 0.378750 0.115000
0.077500 0.378750 0.115000
0.145000 0.378750 0.115000
0.212500 0.378750 0.115000
0.280000 0.378750 0.115000
0.347500 0.378750 0.115000
0.415000 0.378750 0.115000
0.482500 0.378750 0.115000
0.550000 0.378750 0.115000
0.617500 0.378750 0.115000
0.685000 0.378750 0.115000
0.752500 0.378750 0.115000
0.820000 0.378750 0.115000
0.887500 0.378750 0.115000
0.955000 0.378750 0.115000
1.000000 0.378750 0.115000
1.000000 0.378750 0.115000
0.010000 0.441875 0.115000
0.077500 0.441875 0.115000
0.145000 0.441875 0.115000
0.212500 0.441875 0.115000
0.280000 0.441875 0.115000
0.347500 0.441875 0.115000
0.415000 0.441875 0.115000
0.482500 0.441875 0.115000
0.550000 0.441875 0.115000
0.617500 0.441875 0.115000
0.685000 0.441875 0.115000
0.752500 0.441875 0.115000
0.820000 0.441875 0.115000
0.887500 0.441875 0.115000
0.955000 0.441875 0.115000
1.000000 0.441875 0.115000
1.000000 0.441875 0.115000
0.010000 0.505000 0.115000
0.077500 0.505000 0.115000
0.145000 0.505000 0.115000
0.212500 0.505000 0.115000
0.280000 0.505000 0.115000
0.347500 0.505000 0.115000
0.415000 0.505000 0.115000
0.482500 0.505000 0.115000
0.550000 0.505000 0.115000
0.617500 0.505000 0.115000
0.685000 0.505000 0.115000
0.752500 0.505000 0.115000
0.820000 0.505000 0.115000
0.887500 0.505000 0.115000
0.955000 0.505000 0.115000
1.000000 0.505000 0.115000
1.000000 0.505000 0.115000
0.010000 0.568125 0.115000
0.077500 0.568125 0.115000
0.145000 0.568125 0.115000
0.212500 0.568125 0.115000
0.280000 0.568125 0.115000
0.347500 0.568125 0.115000
0.415000 0.568125 0.115000
0.482500 0.568125 0.115000
0.550000 0.568125 0.115000
0.617500 0.568125 0.115000
0.685000 0.568125 0.115000
0.752500 0.568125 0.115000
0.820000 0.568125 0.115000
0.887500 0.568125 0.115000
0.955000 0.568125 0.115000
1.000000 0.568125 0.115000
1.000000 0.568125 0.115000
0.010000 0.631250 0.115000
0.077500 0.631250 0.115000
0.145000 0.631250 0.115000
0.212500 0.631250 0.115000
0.280000 0.631250 0.115000
0.347500 0.631250 0.115000
0.415000 0.631250 0.115000
0.482500 0.631250 0.115000
0.550000 0.631250 0.115000
0.617500 0.631250 0.115000
0.685000 0.631250 0.115000
0.752500 0.631250 0.115000
0.820000 0.631250 0.115000
0.887500 0.631250 0.115000
0.955000 0.631250 0.115000
1.000000 0.631250 0.115000
1.000000 0.631250 0.115000
0.010000 0.694375 0.115000
0.077500 0.694375 0.115000
0.145000 0.694375 0.115000
0.212500 0.694375 0.115000
0.280000 0.694375 0.115000
0.347500 0.694375 0.115000
0.415000 0.694375 0.115000
0.482500 0.694375 0.115000
0.550000 0.694375 0.115000
0.617500 0.694375 0.115000
0.685000 0.694375 0.115000
0.752500 0.694375 0.115000
0.820000 0.694375 0.115000
0.887500 0.694375 0.115000
0.955000 0.694375 0.115000
1.000000 0.694375 0.115000
1.000000 0.694375 0.115000
0.010000 0.757500 0.115000
0.077500 0.757500 0.115000
0.145000 0.757500 0.115000
0.212500 0.757500 0.115000
0.280000 0.757500 0.115000
0.347500 0.757500 0.115000
0.415000 0.757500 0.115000
0.482500 0.757500 0.115000
0.550000 0.757500 0.115000
0.617500 0.757500 0.115000
0.685000 0.757500 0.115000
0.752500 0.757500 0.115000
0.820000 0.757500 0.115000
0.887500 0.757500 0.115000
0.955000 0.757500 0.115000
1.000000 0.757500 0.115000
1.000000 0.757500 0.115000
0.010000 0.820625 0.115000
0.077500 0.820625 0.115000
0.145000 0.820625 0.115000
0.212500 0.820625 0.115000
0.280000 0.820625 0.115000
0.347500 0.820625 0.115000
0.415000 0.820625 0.115000
0.482500 0.820625 0.115000
0.550000 0.820625 0.115000
0.617500 0.820625 0.115000
0.685000 0.820625 0.115000
0.752500 0.820625 0.115000
0.820000 0.820625 0.115000
0.887500 0.820625 0.115000
0.955000 0.820625 0.115000
1.000000 0.820625 0.115000
1.000000 0.820625 0.115000
0.010000 0.883750 0.115000
0.077500 0.883750 0.115000
0.145000 0.883750 0.115000
0.212500 0.883750 0.115000
0.280000 0.883750 0.115000
0.347500 0.883750 0.115000
0.415000 0.883750 0.115000
0.482500 0.883750 0.115000
0.550000 0.883750 0.115000
0.617500 0.883750 0.115000
0.685000 0.883750 0.115000
0.752500 0.883750 0.115000
0.820000 0.883750 0.115000
0.887500 0.883750 0.115000
0.955000 0.883750 0.115000
1.000000 0.883750 0.115000
1.000000 0.883750 0.115000
0.010000 0.946875 0.115000
0.077500 0.946875 0.115000
0.145000 0.946875 0.115000
0.212500 0.946875 0.115000
0.280000 0.946875 0.115000
0.347500 0.946875 0.115000
0.415000 0.946875 0.115000
0.482500 0.946875 0.115000
0.550000 0.946875 0.115000
0.617500 0.946875 0.115000
0.685000 0.946875 0.115000
0.752500 0.946875 0.115000
0.820000 0.946875 0.115000
0.887500 0.946875 0.115000
0.955000 0.946875 0.115000
1.000000 0.946875 0.115000
1.000000 0.946875 0.115000
0.010000 1.010000 0.115000
0.077500 1.010000 0.115000
0.145000 1.010000 0.115000
0.212500 1.010000 0.115000
0.280000 1.010000 0.115000
0.347500 1.010000 0.115000
0.415000 1.010000 0.115000
0.482500 1.010000 0.115000
0.550000 1.010000 0.115000
0.617500 1.010000 0.115000
0.685000 1.010000 0.115000
0.752500 1.010000 0.115000
0.820000 1.010000 0.115000
0.887500 1.010000 0.115000
0.955000 1.010000 0.115000
1.000000 1.010000 0.115000
1.000000 1.010000 0.115000
0.010000 0.000000 0.172500
0.077500 0.000000 0.172500
0.145000 0.000000 0.172500
0.212500 0.000000 0.172500
0.280000 0.000000 0.172500
0.347500 0.000000 0.172500
0.415000 0.000000 0.172500
0.482500 0.000000 0.172500
0.550000 0.000000 0.172500
0.617500 0.000000 0.172500
0.685000 0.000000 0.172500
0.752500 0.000000 0.172500
0.820000 0.000000 0.172500
0.887500 0.000000 0.172500
0.955000 0.000000 0.172500
1.000000 0.000000 0.172500
1.000000 0.000000 0.172500
0.010000 0.063125 0.172500
0.077500 0.063125 0.172500
0.145000 0.063125 0.172500
